components/Common/Svg/svgs/journyMap.svg

<svg width="40" height="40" viewBox="0 0 40 40" fill="none" xmlns="http://www.w3.org/2000/svg">
<path fill-rule="evenodd" clip-rule="evenodd" d="M9.62394 4.05601C6.54878 4.05601 4.05586 6.54892 4.05586 9.62409C4.05586 10.8841 4.47438 12.0464 5.18 12.9794C5.5841 12.488 6.06879 12.0647 6.61611 11.729C6.73563 11.6557 6.85752 11.5869 6.98151 11.5228C6.39011 10.8821 6.02881 10.0258 6.02881 9.08511C6.02881 7.09963 7.63836 5.49008 9.62384 5.49008C11.6093 5.49008 13.2189 7.09963 13.2189 9.08511C13.2189 10.0258 12.8576 10.8821 12.2661 11.5229C12.3901 11.587 12.512 11.6557 12.6314 11.729C13.1788 12.0647 13.6636 12.4881 14.0677 12.9796C14.7734 12.0465 15.192 10.8842 15.192 9.62409C15.192 6.54892 12.6991 4.05601 9.62394 4.05601ZM14.5607 15.0938C16.0538 13.7454 16.992 11.7943 16.992 9.62409C16.992 5.55481 13.6932 2.25601 9.62394 2.25601C5.55466 2.25601 2.25586 5.55481 2.25586 9.62409C2.25586 11.7896 3.19009 13.737 4.67751 15.0851C4.68927 15.0963 4.70137 15.1072 4.71381 15.1178C6.01713 16.2834 7.73777 16.9922 9.62394 16.9922C11.5146 16.9922 13.239 16.2801 14.5434 15.1094C14.5493 15.1043 14.555 15.0991 14.5607 15.0938ZM12.7594 14.2261C12.4662 13.8441 12.1044 13.5173 11.6904 13.2634C11.0685 12.882 10.3533 12.6802 9.62378 12.6802C8.89429 12.6802 8.17902 12.882 7.55716 13.2634C7.14325 13.5173 6.78147 13.844 6.48827 14.226C7.38134 14.8357 8.46101 15.1922 9.62394 15.1922C10.7868 15.1922 11.8664 14.8357 12.7594 14.2261ZM9.62384 7.29008C8.63247 7.29008 7.82881 8.09374 7.82881 9.08511C7.82881 10.0765 8.63247 10.8801 9.62384 10.8801C10.6152 10.8801 11.4189 10.0765 11.4189 9.08511C11.4189 8.09374 10.6152 7.29008 9.62384 7.29008ZM19.126 10.7038H17.0401V8.90377H19.126C19.6231 8.90377 20.026 9.30672 20.026 9.80377C20.026 10.3008 19.6231 10.7038 19.126 10.7038ZM22.3979 9.80377C22.3979 9.30672 22.8008 8.90377 23.2979 8.90377H25.3838C26.2053 8.90377 26.991 9.06745 27.7081 9.36483C28.1672 9.55523 28.3851 10.0818 28.1947 10.5409C28.0043 11.0001 27.4777 11.2179 27.0186 11.0275C26.5162 10.8192 25.9646 10.7038 25.3838 10.7038H23.2979C22.8008 10.7038 22.3979 10.3008 22.3979 9.80377ZM29.8181 12.1643C30.2772 11.9739 30.8038 12.1918 30.9942 12.6509C31.2916 13.368 31.4552 14.1537 31.4552 14.9752C31.4552 15.7968 31.2916 16.5824 30.9942 17.2996C30.8038 17.7587 30.2772 17.9766 29.8181 17.7862C29.3589 17.5958 29.1411 17.0692 29.3315 16.6101C29.5398 16.1077 29.6552 15.5561 29.6552 14.9752C29.6552 14.3944 29.5398 13.8428 29.3315 13.3404C29.1411 12.8813 29.3589 12.3547 29.8181 12.1643ZM28.1947 19.4096C28.3851 19.8687 28.1672 20.3953 27.7081 20.5857C26.991 20.883 26.2053 21.0467 25.3838 21.0467H22.4754C21.9783 21.0467 21.5754 20.6438 21.5754 20.1467C21.5754 19.6497 21.9783 19.2467 22.4754 19.2467H25.3838C25.9646 19.2467 26.5162 19.1313 27.0186 18.923C27.4777 18.7326 28.0043 18.9504 28.1947 19.4096ZM11.4133 19.7103C12.1343 19.4113 12.9241 19.2467 13.7502 19.2467H16.6586C17.1556 19.2467 17.5586 19.6497 17.5586 20.1467C17.5586 20.6438 17.1556 21.0467 16.6586 21.0467H13.7502C13.1649 21.0467 12.609 21.163 12.1028 21.373C11.6436 21.5634 11.1171 21.3455 10.9267 20.8864C10.7363 20.4272 10.9541 19.9007 11.4133 19.7103ZM9.28544 22.5276C9.74459 22.718 9.96245 23.2446 9.77205 23.7037C9.5621 24.21 9.44578 24.7658 9.44578 25.3511C9.44578 25.9364 9.5621 26.4923 9.77205 26.9986C9.96245 27.4577 9.74459 27.9843 9.28544 28.1747C8.8263 28.3651 8.29974 28.1472 8.10934 27.6881C7.81035 26.9671 7.64578 26.1772 7.64578 25.3511C7.64578 24.5251 7.81035 23.7352 8.10934 23.0142C8.29974 22.5551 8.8263 22.3372 9.28544 22.5276ZM10.9267 29.8159C11.1171 29.3567 11.6436 29.1389 12.1028 29.3293C12.609 29.5392 13.1649 29.6555 13.7502 29.6555H16.0631C16.5602 29.6555 16.9631 30.0585 16.9631 30.5555C16.9631 31.0526 16.5602 31.4555 16.0631 31.4555H13.7502C12.9241 31.4555 12.1343 31.291 11.4133 30.992C10.9541 30.8016 10.7363 30.275 10.9267 29.8159ZM19.7891 30.5555C19.7891 30.0585 20.192 29.6555 20.6891 29.6555H23.002V31.4555H20.6891C20.192 31.4555 19.7891 31.0526 19.7891 30.5555ZM30.3759 24.8078C27.3007 24.8078 24.8078 27.3007 24.8078 30.3759C24.8078 33.451 27.3007 35.944 30.3759 35.944C33.4511 35.944 35.944 33.451 35.944 30.3759C35.944 27.3007 33.4511 24.8078 30.3759 24.8078ZM23.0078 30.3759C23.0078 26.3066 26.3066 23.0078 30.3759 23.0078C34.4452 23.0078 37.744 26.3066 37.744 30.3759C37.744 34.4452 34.4452 37.744 30.3759 37.744C26.3066 37.744 23.0078 34.4452 23.0078 30.3759ZM33.9916 28.1374C34.3348 28.497 34.3215 29.0667 33.962 29.4099L30.0092 33.1829C29.6615 33.5149 29.1142 33.5149 28.7664 33.1829L26.79 31.2964C26.4305 30.9532 26.4173 30.3835 26.7605 30.024C27.1037 29.6644 27.6734 29.6512 28.0329 29.9944L29.3878 31.2877L32.7191 28.1078C33.0787 27.7646 33.6484 27.7779 33.9916 28.1374Z" fill="#161616"/>
</svg>

<svg width="40" height="40" viewBox="0 0 40 40" fill="none" xmlns="http://www.w3.org/2000/svg"><path fill-rule="evenodd" clip-rule="evenodd" d="M9.624 4.056a5.568 5.568 0 0 0-4.444 8.923 5.755 5.755 0 0 1 1.802-1.456 3.595 3.595 0 1 1 5.285 0 5.753 5.753 0 0 1 1.802 1.457 5.568 5.568 0 0 0-4.444-8.924Zm4.937 11.038a7.368 7.368 0 1 0-9.874-10.94 7.368 7.368 0 0 0 9.874 10.94Zm-1.802-.868a3.952 3.952 0 0 0-6.27 0c.892.61 1.972.966 3.135.966a5.542 5.542 0 0 0 3.135-.966ZM9.624 7.29a1.795 1.795 0 1 0 0 3.59 1.795 1.795 0 0 0 0-3.59Zm9.502 3.414H17.04v-1.8h2.086a.9.9 0 1 1 0 1.8Zm3.272-.9a.9.9 0 0 1 .9-.9h2.086c.821 0 1.607.163 2.324.46a.9.9 0 0 1-.69 1.663 4.257 4.257 0 0 0-1.634-.323h-2.086a.9.9 0 0 1-.9-.9Zm7.42 2.36a.9.9 0 0 1 1.176.487c.298.717.461 1.503.461 2.324 0 .822-.163 1.607-.46 2.325a.9.9 0 0 1-1.664-.69 4.257 4.257 0 0 0 .324-1.635c0-.58-.115-1.132-.324-1.635a.9.9 0 0 1 .487-1.176Zm-1.623 7.246a.9.9 0 0 1-.487 1.176 6.057 6.057 0 0 1-2.324.46h-2.909a.9.9 0 1 1 0-1.8h2.909c.58 0 1.132-.115 1.635-.323a.9.9 0 0 1 1.176.487Zm-16.782.3a6.088 6.088 0 0 1 2.337-.463h2.909a.9.9 0 0 1 0 1.8H13.75c-.585 0-1.141.116-1.647.326a.9.9 0 0 1-.69-1.663Zm-2.128 2.818a.9.9 0 0 1 .487 1.176 4.289 4.289 0 0 0-.326 1.647c0 .585.116 1.141.326 1.648a.9.9 0 0 1-1.663.69 6.089 6.089 0 0 1-.463-2.338c0-.826.164-1.616.463-2.337a.9.9 0 0 1 1.176-.486Zm1.642 7.288a.9.9 0 0 1 1.176-.487 4.29 4.29 0 0 0 1.647.326h2.313a.9.9 0 0 1 0 1.8H13.75a6.088 6.088 0 0 1-2.337-.463.9.9 0 0 1-.486-1.176Zm8.862.74a.9.9 0 0 1 .9-.9h2.313v1.8h-2.313a.9.9 0 0 1-.9-.9Zm10.587-5.748a5.568 5.568 0 1 0 0 11.136 5.568 5.568 0 0 0 0-11.136Zm-7.368 5.568a7.368 7.368 0 1 1 14.736 0 7.368 7.368 0 0 1-14.736 0Zm10.984-2.239a.9.9 0 0 1-.03 1.273l-3.953 3.773a.9.9 0 0 1-1.243 0l-1.976-1.887a.9.9 0 0 1 1.243-1.302l1.355 1.294 3.331-3.18a.9.9 0 0 1 1.273.03Z" fill="#161616"/></svg>
